app/img/azamat/comment.svg

<svg width="14" height="16" fill="none" xmlns="http://www.w3.org/2000/svg"><path d="M13.993 1.6c0-.88-.623-1.6-1.393-1.6H1.4C.63 0 0 .72 0 1.6v9.6c0 .88.63 1.6 1.4 1.6h9.8L14 16l-.007-14.4Zm-2.793 8H2.8V8h8.4v1.6Zm0-2.4H2.8V5.6h8.4v1.6Zm0-2.4H2.8V3.2h8.4v1.6Z" fill="#ACACAC"/></svg>

<svg width="14" height="16" viewBox="0 0 14 16" fill="none" xmlns="http://www.w3.org/2000/svg">
<path d="M13.993 1.6C13.993 0.72 13.37 0 12.6 0H1.4C0.63 0 0 0.72 0 1.6V11.2C0 12.08 0.63 12.8 1.4 12.8H11.2L14 16L13.993 1.6ZM11.2 9.6H2.8V8H11.2V9.6ZM11.2 7.2H2.8V5.6H11.2V7.2ZM11.2 4.8H2.8V3.2H11.2V4.8Z" fill="#ACACAC"/>
</svg>
